X: 3698
T: Billy Pigg's
R: jig
M: 6/8
K: Dmajor
FDF AFD|ABc dAG|FDF AFD|EB,E GFE|
FDF ABc|dfe dcd|cBA GEC|EDD D2:|
dcd AFD|dcd ecA|=cBc GEC|=cBc dBG|
dcd ABc|dfe dcd|cBA GEC|EDD D2:|

